X:1
T:Title
%%score { ( 1 3 ) | ( 2 4 ) }
L:1/8
M:4/4
K:Eb
V:1 treble nm="Grand Piano"
V:3 treble 
V:2 bass 
V:4 bass 
V:1
 z4 z2 z[Q:1/4=100] B, | E>E E>F G>G G>E | G>[FA] [GB]>[Ac] [GB]3 [B,FB] | %3
 [G,E]2 [B,DF]2 [B,EG] [GB]3 | [Ac]>[GB] [GB]<[EG] [DF]3 [FB] | E>E E>F G>G G>E | %6
 G>[FA] [GB]>[Ac] [GB]3 [AB] | [Be]2 [Ac]2 [GB] [EG]3 |[M:7/8] [DF]>EE<E E3 |[M:1/8] B | %10
[M:4/4] [Ge]2 [Ge]2 [Ac] [GB]3 | [B,EG]4 [A,DF] E3 | B,>E E>F G>[GB] [Ac]>[GB] | %13
 [EG]2 [EF]2 [DF]3 B | [Ge]2 [Ge]2 [Ac] [GB]3 | [B,EG]4 [A,DF] E3 | B,>E E>F G<E [DF]>[DF] | %17
[M:7/8] E-E-E- E3 z |] %18
V:2
 z4 z2 z [E,G,] | [E,G,B,]>[E,G,B,] [E,G,B,]>[E,A,B,] [E,B,E]>[E,B,E] [E,B,E]>[E,G,] | %2
 [E,B,E]>[E,B,] [E,E]>[E,E] [E,E]3 D, | E,2 B,,2 E, [E,E]3 | %4
 [E,E]>[E,E] [E,E]<[E,B,] [B,,B,]3 [D,A,] | %5
 [E,G,]>[E,G,] [E,G,B,]>[E,A,B,] [E,B,E]>[E,B,E] [E,B,E]>[E,G,] | %6
 [E,B,E]>[E,B,] [E,E]>[E,E] [E,E]3 [F,D] | [G,E]2 [A,E]2 [E,E] [E,B,]3 | %8
[M:7/8] [B,,A,]>[E,G,][E,A,C]<[E,A,C] [E,G,B,]3 |[M:1/8] [B,,B,] | %10
[M:4/4] [E,B,]2 [E,B,]2 [E,E] [E,E]3 | E,E,E,E, B,, [E,G,]3 | %12
 [E,G,]>[E,G,B,] [E,G,B,]>[E,A,B,] [E,B,E]>[E,E] [E,E]>[E,E] | [F,=A,]2 [F,A,]2 [B,,B,]3 [B,,B,] | %14
 [E,B,]2 [E,B,]2 [E,E] [E,E]3 | E,E,E,E, B,, [E,G,]3 | %16
 [E,G,]>[E,G,B,] [E,G,B,]>[E,A,B,] [E,B,E]<[E,G,] [B,,A,]>[B,,A,] |[M:7/8] G, z z z z z2 |] %18
V:3
 x8 | x8 | x8 | x8 | x8 | x8 | x8 | x8 |[M:7/8] x7 |[M:1/8] x |[M:4/4] x8 | x8 | x8 | x8 | x8 | %15
 x8 | x8 |[M:7/8] z B,C>C B,2 z |] %18
V:4
 x8 | x8 | x8 | x8 | x8 | x8 | x8 | x8 |[M:7/8] x7 |[M:1/8] x |[M:4/4] x8 | x8 | x8 | x8 | x8 | %15
 x8 | x8 |[M:7/8] E,-[E,-G,][E,-A,]>[E,A,] [E,G,]2 z |] %18

